symbols-de/shields/motorway_5x2_z16.svg

<?xml version="1.0" encoding="UTF-8" standalone="no"?>
<svg
   xmlns:dc="http://purl.org/dc/elements/1.1/"
   xmlns:cc="http://creativecommons.org/ns#"
   xmlns:rdf="http://www.w3.org/1999/02/22-rdf-syntax-ns#"
   xmlns:svg="http://www.w3.org/2000/svg"
   xmlns="http://www.w3.org/2000/svg"
   xmlns:sodipodi="http://sodipodi.sourceforge.net/DTD/sodipodi-0.dtd"
   xmlns:inkscape="http://www.inkscape.org/namespaces/inkscape"
   width="100%"
   height="100%"
   viewBox="0 0 42.0 26.0"
   id="svg2"
   version="1.1"
   inkscape:version="0.91 r13725"
   sodipodi:docname="autobahn_5x2_z16.svg">
  <metadata
     id="metadata9">
    <rdf:RDF>
      <cc:Work
         rdf:about="">
        <dc:format>image/svg+xml</dc:format>
        <dc:type
           rdf:resource="http://purl.org/dc/dcmitype/StillImage" />
        <dc:title></dc:title>
      </cc:Work>
    </rdf:RDF>
  </metadata>
  <defs
     id="defs7" />
  <sodipodi:namedview
     pagecolor="#ffffff"
     bordercolor="#666666"
     borderopacity="1"
     objecttolerance="10"
     gridtolerance="10"
     guidetolerance="10"
     inkscape:pageopacity="0"
     inkscape:pageshadow="2"
     inkscape:window-width="922"
     inkscape:window-height="680"
     id="namedview5"
     showgrid="false"
     inkscape:zoom="8.4047619"
     inkscape:cx="21"
     inkscape:cy="13"
     inkscape:window-x="294"
     inkscape:window-y="344"
     inkscape:window-maximized="0"
     inkscape:current-layer="svg2" />
  <path
     style="fill:#365eaf;fill-opacity:1;stroke:#0528a2;stroke-width:1;stroke-miterlimit:4;stroke-dasharray:none;stroke-opacity:1"
     d="m 20.999999,0.5 c -0.293905,0 -0.44043,0.0036 -0.44043,0.01274 L 1.162184,2.436143 C 0.721323,2.528373 0.5,2.667787 0.5,2.852244 c 0,6.765171 0,13.530343 0,20.295514 0,0.184456 0.221322,0.323875 0.662184,0.4161 l 19.397385,1.923402 c 0,0.0092 0.146528,0.01274 0.44043,0.01274 0.293907,0 0.44043,-0.0036 0.44043,-0.01274 l 19.397384,-1.923403 c 0.440862,-0.09223 0.662185,-0.231645 0.662185,-0.4161 0,-6.765172 0,-13.530343 0,-20.295514 0,-0.184457 -0.221323,-0.323875 -0.662185,-0.416101 L 21.440429,0.512739 c 0,-0.0092 -0.146527,-0.01274 -0.44043,-0.01274 z"
     id="path6"
     inkscape:connector-curvature="0"
     sodipodi:nodetypes="sccccccsccccccs" />
</svg>

<?xml version="1.0" encoding="UTF-8"?>
<svg xmlns="http://www.w3.org/2000/svg" xmlns:xlink="http://www.w3.org/1999/xlink" width="40pt" height="34pt" viewBox="0 0 40 34" version="1.1">
<g id="surface1">
<path style="fill-rule:nonzero;fill:rgb(21.176471%,36.862745%,68.627451%);fill-opacity:1;stroke-width:1;stroke-linecap:butt;stroke-linejoin:miter;stroke:rgb(1.960784%,15.686275%,63.529412%);stroke-opacity:1;stroke-miterlimit:4;" d="M 21 0.498851 C 20.704688 0.498851 20.561133 0.504825 20.561133 0.513787 L 1.160742 2.4375 C 0.721875 2.527114 0.500391 2.667509 0.500391 2.852711 C 0.500391 9.618566 0.500391 16.381434 0.500391 23.147289 C 0.500391 23.332491 0.721875 23.472886 1.160742 23.5625 L 20.561133 25.486213 C 20.561133 25.495175 20.704688 25.501149 21 25.501149 C 21.295313 25.501149 21.438867 25.495175 21.438867 25.486213 L 40.839258 23.5625 C 41.278125 23.472886 41.499609 23.332491 41.499609 23.147289 C 41.499609 16.381434 41.499609 9.618566 41.499609 2.852711 C 41.499609 2.667509 41.278125 2.527114 40.839258 2.4375 L 21.438867 0.513787 C 21.438867 0.504825 21.295313 0.498851 21 0.498851 Z M 21 0.498851 " transform="matrix(0.952381,0,0,1.307692,0,0)"/>
</g>
</svg>
